Breeze-Noir-White-Blue/places/64/folder-cloud.svg

<?xml version="1.0" encoding="UTF-8" standalone="no"?>
<svg
   xmlns:dc="http://purl.org/dc/elements/1.1/"
   xmlns:cc="http://creativecommons.org/ns#"
   xmlns:rdf="http://www.w3.org/1999/02/22-rdf-syntax-ns#"
   xmlns:svg="http://www.w3.org/2000/svg"
   xmlns="http://www.w3.org/2000/svg"
   xmlns:xlink="http://www.w3.org/1999/xlink"
   xmlns:sodipodi="http://sodipodi.sourceforge.net/DTD/sodipodi-0.dtd"
   xmlns:inkscape="http://www.inkscape.org/namespaces/inkscape"
   viewBox="0 0 64 64"
   version="1.1"
   id="svg14"
   sodipodi:docname="folder-cloud.svg"
   inkscape:version="0.92.4 (5da689c313, 2019-01-14)">
  <metadata
     id="metadata18">
    <rdf:RDF>
      <cc:Work
         rdf:about="">
        <dc:format>image/svg+xml</dc:format>
        <dc:type
           rdf:resource="http://purl.org/dc/dcmitype/StillImage" />
      </cc:Work>
    </rdf:RDF>
  </metadata>
  <sodipodi:namedview
     pagecolor="#ffffff"
     bordercolor="#666666"
     borderopacity="1"
     objecttolerance="10"
     gridtolerance="10"
     guidetolerance="10"
     inkscape:pageopacity="0"
     inkscape:pageshadow="2"
     inkscape:window-width="1920"
     inkscape:window-height="1017"
     id="namedview16"
     showgrid="false"
     inkscape:zoom="3.6875"
     inkscape:cx="-65.355932"
     inkscape:cy="32"
     inkscape:window-x="0"
     inkscape:window-y="0"
     inkscape:window-maximized="1"
     inkscape:current-layer="svg14" />
  <defs
     id="defs3051">
    <linearGradient
       inkscape:collect="always"
       id="linearGradient821">
      <stop
         style="stop-color:#005f88;stop-opacity:1;"
         offset="0"
         id="stop817" />
      <stop
         style="stop-color:#05b1ff;stop-opacity:1"
         offset="1"
         id="stop819" />
    </linearGradient>
    <style
       type="text/css"
       id="current-color-scheme">
      .ColorScheme-Text {
        color:#31363b;
      }
      .ColorScheme-Background {
        color:#eff0f1;
      }
      .ColorScheme-Highlight {
        color:#3daee9;
      }
      .ColorScheme-ViewText {
        color:#31363b;
      }
      .ColorScheme-ViewBackground {
        color:#fcfcfc;
      }
      .ColorScheme-ViewHover {
        color:#93cee9;
      }
      .ColorScheme-ViewFocus{
        color:#3daee9;
      }
      .ColorScheme-ButtonText {
        color:#31363b;
      }
      .ColorScheme-ButtonBackground {
        color:#eff0f1;
      }
      .ColorScheme-ButtonHover {
        color:#93cee9;
      }
      .ColorScheme-ButtonFocus{
        color:#3daee9;
      }
      </style>
    <linearGradient
       inkscape:collect="always"
       xlink:href="#linearGradient821"
       id="linearGradient823"
       x1="4"
       y1="13"
       x2="60"
       y2="13"
       gradientUnits="userSpaceOnUse" />
  </defs>
  <path
     style="fill:#a1b4ba;fill-opacity:1;stroke:none"
     d="M 4 6 L 4 11 L 4 20 L 3 20 L 3 21 L 3.0019531 21 C 3.0019031 21.004 3 21.008019 3 21.011719 L 3 57 L 3 58 L 4 58 L 60 58 L 61 58 L 61 57 L 61 21.011719 L 61 21 L 61 16 L 60 16 L 60 11.009766 C 60 11.006766 59.998047 11.004 59.998047 11 L 60 11 L 60 10 L 32 10 L 28 6 L 4 6 z "
     class="ColorScheme-Highlight"
     id="path4" />
  <path
     style="fill-opacity:1;fill-rule:evenodd;fill:url(#linearGradient823)"
     d="M 4 6 L 4 11 L 4 20 L 22 20 L 26 16 L 60 16 L 60 11.009766 C 60 11.006766 59.998047 11.004 59.998047 11 L 60 11 L 60 10 L 32 10 L 28 6 L 4 6 z "
     id="path6" />
  <path
     style="fill:#ffffff;fill-opacity:0.2;fill-rule:evenodd"
     d="M 28 6 L 31 11 L 33 11 L 60 11 L 60 10 L 33 10 L 32 10 L 28 6 z M 26 16 L 22 20 L 3 20 L 3 21 L 23 21 L 26 16 z "
     id="path8" />
  <path
     style="fill-opacity:0.2;fill-rule:evenodd"
     d="M 26 16 L 20 19 L 4 19 L 4 20 L 22 20 L 26 16 z M 3 57 L 3 58 L 4 58 L 60 58 L 61 58 L 61 57 L 60 57 L 4 57 L 3 57 z "
     class="ColorScheme-Text"
     id="path10" />
  <path
     style="fill:#002e3c;fill-opacity:1;stroke:none"
     d="M 32 28 A 7 7 0 0 0 25 35 A 7 7 0 0 0 25.080078 36.001953 A 5 5 0 0 0 25 36 A 5 5 0 0 0 20 41 A 5 5 0 0 0 25 46 L 38 46 A 6 6 0 0 0 44 40 A 6 6 0 0 0 38.931641 34.078125 A 7 7 0 0 0 32 28 z M 32 29 A 6 6 0 0 1 32.599609 29.029297 A 6 6 0 0 1 35.386719 30.048828 A 6 6 0 0 1 35.388672 30.048828 A 6 6 0 0 1 36.699219 31.269531 A 6 6 0 0 1 36.699219 31.271484 A 6 6 0 0 1 37.914062 34.003906 A 6 6 0 0 1 38 35 A 5 5 0 0 1 38.996094 35.099609 A 5 5 0 0 1 39.478516 35.222656 A 5 5 0 0 1 39.480469 35.222656 A 5 5 0 0 1 39.947266 35.394531 A 5 5 0 0 1 39.949219 35.394531 A 5 5 0 0 1 40.396484 35.611328 A 5 5 0 0 1 40.400391 35.613281 A 5 5 0 0 1 40.822266 35.873047 A 5 5 0 0 1 40.826172 35.875 A 5 5 0 0 1 41.220703 36.175781 A 5 5 0 0 1 41.222656 36.177734 A 5 5 0 0 1 41.585938 36.515625 A 5 5 0 0 1 41.587891 36.517578 A 5 5 0 0 1 42.207031 37.298828 A 5 5 0 0 1 42.208984 37.300781 A 5 5 0 0 1 42.455078 37.732422 A 5 5 0 0 1 42.457031 37.734375 A 5 5 0 0 1 42.660156 38.1875 A 5 5 0 0 1 42.662109 38.189453 A 5 5 0 0 1 42.818359 38.662109 A 5 5 0 0 1 42.818359 38.664062 A 5 5 0 0 1 42.927734 39.150391 A 5 5 0 0 1 42.927734 39.152344 A 5 5 0 0 1 42.988281 39.646484 A 5 5 0 0 1 43 40 A 5 5 0 0 1 38 45 L 25 45 A 4 4 0 0 1 21 41 A 4 4 0 0 1 21.019531 40.601562 A 4 4 0 0 1 25 37 A 4 4 0 0 1 25.298828 37.013672 A 4 4 0 0 1 25.298828 37.015625 A 4 4 0 0 1 26.455078 37.277344 A 6 6 0 0 1 26.113281 36.130859 A 6 6 0 0 1 26.039062 35.623047 A 6 6 0 0 1 26.025391 35.507812 A 6 6 0 0 1 26 35 A 6 6 0 0 1 26.029297 34.400391 A 6 6 0 0 1 32 29 z "
     class="ColorScheme-Background"
     id="path12" />
</svg>

<?xml version="1.0" encoding="UTF-8" standalone="no"?>
<svg
   viewBox="0 0 64 64"
   version="1.1"
   id="svg14"
   sodipodi:docname="folder-cloud.svg"
   inkscape:version="1.2.2 (b0a8486541, 2022-12-01)"
   xmlns:inkscape="http://www.inkscape.org/namespaces/inkscape"
   xmlns:sodipodi="http://sodipodi.sourceforge.net/DTD/sodipodi-0.dtd"
   xmlns:xlink="http://www.w3.org/1999/xlink"
   xmlns="http://www.w3.org/2000/svg"
   xmlns:svg="http://www.w3.org/2000/svg"
   xmlns:rdf="http://www.w3.org/1999/02/22-rdf-syntax-ns#"
   xmlns:cc="http://creativecommons.org/ns#"
   xmlns:dc="http://purl.org/dc/elements/1.1/">
  <metadata
     id="metadata18">
    <rdf:RDF>
      <cc:Work
         rdf:about="">
        <dc:format>image/svg+xml</dc:format>
        <dc:type
           rdf:resource="http://purl.org/dc/dcmitype/StillImage" />
      </cc:Work>
    </rdf:RDF>
  </metadata>
  <sodipodi:namedview
     pagecolor="#ffffff"
     bordercolor="#666666"
     borderopacity="1"
     objecttolerance="10"
     gridtolerance="10"
     guidetolerance="10"
     inkscape:pageopacity="0"
     inkscape:pageshadow="2"
     inkscape:window-width="1920"
     inkscape:window-height="1002"
     id="namedview16"
     showgrid="false"
     inkscape:zoom="3.6875"
     inkscape:cx="-91.389831"
     inkscape:cy="32.135593"
     inkscape:window-x="0"
     inkscape:window-y="0"
     inkscape:window-maximized="1"
     inkscape:current-layer="svg14"
     inkscape:showpageshadow="2"
     inkscape:pagecheckerboard="0"
     inkscape:deskcolor="#d1d1d1" />
  <defs
     id="defs3051">
    <linearGradient
       inkscape:collect="always"
       id="linearGradient821">
      <stop
         style="stop-color:#005f88;stop-opacity:1;"
         offset="0"
         id="stop817" />
      <stop
         style="stop-color:#05b1ff;stop-opacity:1"
         offset="1"
         id="stop819" />
    </linearGradient>
    <style
       type="text/css"
       id="current-color-scheme">
      .ColorScheme-Text {
        color:#31363b;
      }
      .ColorScheme-Background {
        color:#eff0f1;
      }
      .ColorScheme-Highlight {
        color:#3daee9;
      }
      .ColorScheme-ViewText {
        color:#31363b;
      }
      .ColorScheme-ViewBackground {
        color:#fcfcfc;
      }
      .ColorScheme-ViewHover {
        color:#93cee9;
      }
      .ColorScheme-ViewFocus{
        color:#3daee9;
      }
      .ColorScheme-ButtonText {
        color:#31363b;
      }
      .ColorScheme-ButtonBackground {
        color:#eff0f1;
      }
      .ColorScheme-ButtonHover {
        color:#93cee9;
      }
      .ColorScheme-ButtonFocus{
        color:#3daee9;
      }
      </style>
    <linearGradient
       inkscape:collect="always"
       xlink:href="#linearGradient821"
       id="linearGradient823"
       x1="4"
       y1="13"
       x2="60"
       y2="13"
       gradientUnits="userSpaceOnUse" />
  </defs>
  <path
     style="fill:#a1b4ba;fill-opacity:1;stroke:none"
     d="M 4 6 L 4 11 L 4 20 L 3 20 L 3 21 L 3.0019531 21 C 3.0019031 21.004 3 21.008019 3 21.011719 L 3 57 L 3 58 L 4 58 L 60 58 L 61 58 L 61 57 L 61 21.011719 L 61 21 L 61 16 L 60 16 L 60 11.009766 C 60 11.006766 59.998047 11.004 59.998047 11 L 60 11 L 60 10 L 32 10 L 28 6 L 4 6 z "
     class="ColorScheme-Highlight"
     id="path4" />
  <path
     style="fill-opacity:1;fill-rule:evenodd;fill:url(#linearGradient823)"
     d="M 4 6 L 4 11 L 4 20 L 22 20 L 26 16 L 60 16 L 60 11.009766 C 60 11.006766 59.998047 11.004 59.998047 11 L 60 11 L 60 10 L 32 10 L 28 6 L 4 6 z "
     id="path6" />
  <path
     style="fill:#ffffff;fill-opacity:0.2;fill-rule:evenodd"
     d="M 28 6 L 31 11 L 33 11 L 60 11 L 60 10 L 33 10 L 32 10 L 28 6 z M 26 16 L 22 20 L 3 20 L 3 21 L 23 21 L 26 16 z "
     id="path8" />
  <path
     style="fill-opacity:0.2;fill-rule:evenodd"
     d="M 26 16 L 20 19 L 4 19 L 4 20 L 22 20 L 26 16 z M 3 57 L 3 58 L 4 58 L 60 58 L 61 58 L 61 57 L 60 57 L 4 57 L 3 57 z "
     class="ColorScheme-Text"
     id="path10" />
  <path
     style="color:#232629;fill:#002e3c;fill-opacity:1;stroke:none"
     d="m 32,28 a 7,7 0 0 0 -7,7 7,7 0 0 0 0.1,1 5,5 0 0 0 -0.1,0 5,5 0 0 0 -5,5 5,5 0 0 0 5,5 H 38 A 6,6 0 0 0 44,40 6,6 0 0 0 38.9,34.1 7,7 0 0 0 32,28 Z m 0,1 a 6,6 0 0 1 0.6,0 6,6 0 0 1 2.8,1 6,6 0 0 1 1.3,1.3 6,6 0 0 1 1.2,2.7 6,6 0 0 1 0.1,1 5,5 0 0 1 1,0.1 5,5 0 0 1 0.5,0.1 5,5 0 0 1 0.4,0.2 5,5 0 0 1 0.1,0 5,5 0 0 1 0.4,0.2 5,5 0 0 1 0.4,0.3 5,5 0 0 1 0.4,0.3 5,5 0 0 1 0.4,0.3 5,5 0 0 1 0.6,0.8 5,5 0 0 1 0.3,0.4 5,5 0 0 1 0.2,0.5 5,5 0 0 1 0.1,0.5 5,5 0 0 1 0.1,0.5 5,5 0 0 1 0,-0.1 5,5 0 0 1 0.1,0.5 5,5 0 0 1 0,0.4 5,5 0 0 1 -5,5 H 25 a 4,4 0 0 1 -4,-4 4,4 0 0 1 0,-0.4 4,4 0 0 1 4,-3.6 4,4 0 0 1 0.3,0 4,4 0 0 1 1.2,0.3 6,6 0 0 1 -0.4,-1.2 6,6 0 0 1 -0.1,-0.5 6,6 0 0 1 0,-0.1 6,6 0 0 1 0,-0.5 6,6 0 0 1 0,-0.6 6,6 0 0 1 6,-5.4 z"
     class="ColorScheme-Text"
     id="path11602" />
</svg>
